X: 23210
T: League, The
R: reel
M: 4/4
K: Gmajor
G2Bd gdBd|cBAG FAEF|GEED EGAG|FDFA ABAF|
G2Bd gdBd|cBAG FAEF|GEED E2AG|FDEF G4:|
|:bg (3ggg bggg|af (3fff aff2|bgaf g2ed|cABG AFGF|
G2Bd gdBd|cBAG FAEF|GEED E2AG|FDEF G4:|

